Flattr.svg

<?xml version="1.0" encoding="UTF-8" standalone="no"?>
<!-- Created with Inkscape (http://www.inkscape.org/) -->

<svg
   xmlns:dc="http://purl.org/dc/elements/1.1/"
   xmlns:cc="http://creativecommons.org/ns#"
   xmlns:rdf="http://www.w3.org/1999/02/22-rdf-syntax-ns#"
   xmlns:svg="http://www.w3.org/2000/svg"
   xmlns="http://www.w3.org/2000/svg"
   xmlns:xlink="http://www.w3.org/1999/xlink"
   xmlns:sodipodi="http://sodipodi.sourceforge.net/DTD/sodipodi-0.dtd"
   xmlns:inkscape="http://www.inkscape.org/namespaces/inkscape"
   version="1.1"
   width="100"
   height="100"
   id="svg2816"
   xml:space="preserve"
   inkscape:version="0.48.4 r9939"
   sodipodi:docname="Flattr.svg"><metadata
     id="metadata916"><rdf:RDF><cc:Work
         rdf:about=""><dc:format>image/svg+xml</dc:format><dc:type
           rdf:resource="http://purl.org/dc/dcmitype/StillImage" /><dc:title>Flattr-Logo</dc:title></cc:Work></rdf:RDF></metadata><sodipodi:namedview
     pagecolor="#ffffff"
     bordercolor="#666666"
     borderopacity="1"
     objecttolerance="10"
     gridtolerance="10"
     guidetolerance="10"
     inkscape:pageopacity="0"
     inkscape:pageshadow="2"
     inkscape:window-width="1920"
     inkscape:window-height="1145"
     id="namedview914"
     showgrid="false"
     fit-margin-top="10"
     fit-margin-left="10"
     fit-margin-right="10"
     fit-margin-bottom="10"
     inkscape:zoom="4.688534"
     inkscape:cx="77.933757"
     inkscape:cy="20.611212"
     inkscape:window-x="-2"
     inkscape:window-y="-3"
     inkscape:window-maximized="1"
     inkscape:current-layer="svg2816" /><title
     id="title2901">Flattr-Logo</title><defs
     id="defs2820"><linearGradient
       x1="0"
       y1="0"
       x2="1"
       y2="0"
       id="linearGradient2840"
       gradientUnits="userSpaceOnUse"
       gradientTransform="matrix(0,134.75244,134.75244,0,150.74951,247.73047)"
       spreadMethod="pad"><stop
         id="stop2842"
         style="stop-color:#ea5f29;stop-opacity:1"
         offset="0" /><stop
         id="stop2844"
         style="stop-color:#fabd1f;stop-opacity:1"
         offset="1" /></linearGradient><linearGradient
       x1="0"
       y1="0"
       x2="1"
       y2="0"
       id="linearGradient2860"
       gradientUnits="userSpaceOnUse"
       gradientTransform="matrix(0,-134.75195,-134.75195,0,160.87451,372.12109)"
       spreadMethod="pad"><stop
         id="stop2862"
         style="stop-color:#abd33c;stop-opacity:1"
         offset="0" /><stop
         id="stop2864"
         style="stop-color:#6cb02f;stop-opacity:1"
         offset="1" /></linearGradient><clipPath
       id="clipPath2872"><path
         d="m 0,595.276 841.89,0 L 841.89,0 0,0 0,595.276 z"
         id="path2874"
         inkscape:connector-curvature="0" /></clipPath><linearGradient
       inkscape:collect="always"
       xlink:href="#linearGradient2860"
       id="linearGradient3059"
       gradientUnits="userSpaceOnUse"
       gradientTransform="matrix(0,-134.75195,-134.75195,0,160.87451,372.12109)"
       spreadMethod="pad"
       x1="0"
       y1="0"
       x2="1"
       y2="0" /><linearGradient
       inkscape:collect="always"
       xlink:href="#linearGradient2840"
       id="linearGradient3239"
       gradientUnits="userSpaceOnUse"
       gradientTransform="matrix(0,134.75244,134.75244,0,150.74951,247.73047)"
       spreadMethod="pad"
       x1="0"
       y1="0"
       x2="1"
       y2="0" /><linearGradient
       inkscape:collect="always"
       xlink:href="#linearGradient2860"
       id="linearGradient3241"
       gradientUnits="userSpaceOnUse"
       gradientTransform="matrix(0,-134.75195,-134.75195,0,160.87451,372.12109)"
       spreadMethod="pad"
       x1="0"
       y1="0"
       x2="1"
       y2="0" /><linearGradient
       y2="796.64795"
       x2="334.28577"
       y1="1009.505"
       x1="644.28564"
       gradientTransform="matrix(0.14285713,0,0,0.19999998,0,-110.4725)"
       gradientUnits="userSpaceOnUse"
       id="linearGradient3058"
       xlink:href="#linearGradient5322-1"
       inkscape:collect="always" /><linearGradient
       id="linearGradient5322-1"><stop
         style="stop-color:#000000;stop-opacity:0.37391305;"
         offset="0"
         id="stop5324-6" /><stop
         style="stop-color:#000000;stop-opacity:0;"
         offset="1"
         id="stop5326-3" /></linearGradient><linearGradient
       y2="796.64795"
       x2="334.28577"
       y1="1009.505"
       x1="644.28564"
       gradientTransform="matrix(0.14285713,0,0,0.19999998,0,-110.4725)"
       gradientUnits="userSpaceOnUse"
       id="linearGradient3033"
       xlink:href="#linearGradient5322-1"
       inkscape:collect="always" /><linearGradient
       inkscape:collect="always"
       xlink:href="#linearGradient5322"
       id="linearGradient3799"
       x1="-72.770866"
       y1="98.260445"
       x2="-108.53157"
       y2="74.678169"
       gradientUnits="userSpaceOnUse"
       gradientTransform="translate(157.25636,-12.92373)" /><linearGradient
       id="linearGradient5322"><stop
         style="stop-color:#000000;stop-opacity:0.37391305;"
         offset="0"
         id="stop5324" /><stop
         style="stop-color:#000000;stop-opacity:0;"
         offset="1"
         id="stop5326" /></linearGradient><linearGradient
       y2="74.678169"
       x2="-108.53157"
       y1="98.260445"
       x1="-72.770866"
       gradientTransform="translate(157.25636,-12.92373)"
       gradientUnits="userSpaceOnUse"
       id="linearGradient3850"
       xlink:href="#linearGradient5322"
       inkscape:collect="always" /></defs><path
     style="fill:#ffffff;fill-opacity:1;display:inline"
     d="M 12.1375,0 C 5.43509,0 -1.9999972e-5,5.435082 0,12.1375 L 0,87.862503 C 0,94.564903 5.43509,100.00002 12.1375,100 l 75.725,0 C 94.56494,100 99.99998,94.564903 100,87.862503 L 100,12.1375 C 100,5.435082 94.56516,0 87.8625,0 z"
     id="path7-8-6-9-4-7"
     inkscape:connector-curvature="0"
     sodipodi:nodetypes="sssssssss" /><g
     id="g3228"
     transform="matrix(0.82352942,0,0,0.82352941,8.823529,8.8235322)"><g
       transform="matrix(0.58670053,0,0,-0.58574234,-41.414983,231.53707)"
       id="g2828"><g
         id="g2830"><g
           id="g2836"><g
             id="g2838"><path
               d="m 135.377,382.484 c -34.431,0 -52.004,-19.863 -52.004,-56.949 l 0,0 0,-25.906 0,-51.899 33.728,33.817 0,39.523 c 0,15.364 4.065,25.141 17.702,27.336 l 0,0 c 4.764,0.933 14.679,0.606 20.983,0.606 l 0,0 0,-23.467 c 0,-0.214 0.029,-0.596 0.084,-0.792 l 0,0 c 0.264,-0.95 1.122,-1.646 2.138,-1.648 l 0,0 c 0.575,-0.001 1.113,0.298 1.668,0.846 l 0,0 58.45,58.524 -39.234,0.009 -43.515,0 z"
               id="path2846"
               style="fill:url(#linearGradient3239);stroke:none"
               inkscape:connector-curvature="0" /></g></g></g></g><g
       transform="matrix(0.58670053,0,0,-0.58574234,-41.414983,231.53707)"
       id="g2850"><g
         id="g2856"><g
           id="g2858"><path
             inkscape:connector-curvature="0"
             style="fill:url(#linearGradient3241);stroke:none"
             id="path2866"
             d="m 194.523,338.305 0,-39.522 c 0,-15.364 -4.066,-25.142 -17.702,-27.337 l 0,0 c -4.764,-0.932 -14.679,-0.605 -20.983,-0.605 l 0,0 0,23.466 c 0,0.213 -0.029,0.596 -0.084,0.792 l 0,0 c -0.264,0.951 -1.121,1.646 -2.138,1.648 l 0,0 c -0.575,0.002 -1.113,-0.298 -1.668,-0.845 l 0,0 -58.45,-58.524 39.234,-0.009 43.515,0 c 34.431,0 52.004,19.863 52.004,56.948 l 0,0 0,25.907 0,51.898 -33.728,-33.817 z" /></g></g></g></g><g
     id="g2868"
     transform="matrix(0.58670053,0,0,-0.58574234,-41.414983,231.53707)"><g
       id="g2870"
       clip-path="url(#clipPath2872)"><g
         id="g2876"
         transform="translate(500.0391,266.1826)" /><g
         id="g2880"
         transform="translate(413.1797,243.7695)" /><g
         id="g2884"
         transform="translate(622.29,276.9707)" /><g
         id="g2888"
         transform="translate(364.2563,361.6123)" /><g
         id="g2892"
         transform="translate(756.458,336.3027)" /><g
         id="g2896"
         transform="translate(547.0293,276.9873)" /></g></g><path
     style="fill:#000000;fill-opacity:0.78431373;display:inline"
     d="M 12.1375,-3.0000552e-6 C 5.43509,-3.0000552e-6 -1.9999945e-5,5.435079 0,12.137497 L 0,87.8625 C 0,94.5649 5.43509,100.00002 12.1375,100 l 75.725,0 C 94.56494,100 99.99998,94.5649 100,87.8625 l 0,-75.725003 C 100,5.435079 94.56516,-3.0000552e-6 87.8625,-3.0000552e-6 l -75.725,0 z M 18.19375,7.999997 l 63.60625,0 c 5.63024,0 10.2,4.563718 10.2,10.19375 L 92,81.8 C 91.99999,87.43002 87.43005,92 81.8,92 L 18.19375,92 C 12.56372,92.00001 8,87.43002 8,81.8 L 8,18.193747 c -10e-6,-5.630032 4.56372,-10.19375 10.19375,-10.19375 z"
     id="path7-8-6-9-4"
     inkscape:connector-curvature="0" /><path
     style="fill:url(#linearGradient3850);fill-opacity:1;display:inline"
     d="M 12.1375,-7.4005519e-7 C 5.43509,-7.4005519e-7 -1.9999945e-5,5.4350793 0,12.137499 L 0,87.8625 C 0,94.5649 5.43509,100.00002 12.1375,100 l 75.725008,0 C 94.564948,100 99.999988,94.5649 100,87.8625 l 0,-75.725001 C 100,5.4350793 94.565168,-7.4005519e-7 87.862508,-7.4005519e-7 z"
     id="path7-8-6-9-9"
     inkscape:connector-curvature="0"
     sodipodi:nodetypes="sssssssss" /></svg>

<svg xmlns="http://www.w3.org/2000/svg" viewBox="0 0 100 100"><defs><clipPath><path d="m0 595.28h841.89v-595.28h-841.89v595.28"/></clipPath><linearGradient id="2" gradientUnits="userSpaceOnUse" y1="247.73" x2="0" y2="382.48"><stop stop-color="#ea5f29"/><stop offset="1" stop-color="#fabd1f"/></linearGradient><linearGradient id="1" gradientUnits="userSpaceOnUse" y1="372.12" x2="0" y2="237.37"><stop stop-color="#abd33c"/><stop offset="1" stop-color="#6cb02f"/></linearGradient><linearGradient y2="61.754" x2="48.725" y1="85.34" x1="84.49" gradientUnits="userSpaceOnUse" id="0"><stop stop-opacity=".374"/><stop offset="1" stop-opacity="0"/></linearGradient></defs><path d="m12.138 0c-6.702 0-12.138 5.435-12.138 12.138v75.73c0 6.702 5.435 12.138 12.138 12.137h75.72c6.702 0 12.137-5.435 12.138-12.137v-75.73c0-6.702-5.435-12.138-12.138-12.138z" fill="#fff"/><path d="m135.38 382.48c-34.431 0-52-19.863-52-56.949v-25.906-51.899l33.728 33.817v39.523c0 15.364 4.065 25.14 17.702 27.336 4.764.933 14.679.606 20.983.606v-23.467c0-.214.029-.596.084-.792.264-.95 1.122-1.646 2.138-1.648.575-.001 1.113.298 1.668.846l58.45 58.52-39.23.009h-43.515" fill="url(#2)" transform="matrix(.48317 0 0-.48238-25.283 199.5)"/><path d="m194.52 338.31v-39.522c0-15.364-4.066-25.14-17.702-27.337-4.764-.932-14.679-.605-20.983-.605v23.466c0 .213-.029.596-.084.792-.264.951-1.121 1.646-2.138 1.648-.575.002-1.113-.298-1.668-.845l-58.45-58.52 39.23-.009h43.515c34.431 0 52 19.863 52 56.948v25.907 51.898l-33.728-33.817" fill="url(#1)" transform="matrix(.48317 0 0-.48238-25.283 199.5)"/><path d="m12.138 0c-6.702 0-12.138 5.435-12.138 12.138v75.73c0 6.702 5.435 12.138 12.138 12.138h75.72c6.702 0 12.137-5.435 12.138-12.138v-75.73c0-6.702-5.435-12.138-12.138-12.138h-75.72m6.06 8h63.61c5.63 0 10.2 4.564 10.2 10.194v63.61c0 5.63-4.57 10.2-10.2 10.2h-63.61c-5.63 0-10.194-4.57-10.194-10.2v-63.61c0-5.63 4.564-10.194 10.194-10.194" fill-opacity=".784"/><path d="m12.138 0c-6.702 0-12.138 5.435-12.138 12.137v75.73c0 6.702 5.435 12.138 12.138 12.138h75.73c6.702 0 12.137-5.435 12.137-12.138v-75.73c0-6.702-5.435-12.137-12.137-12.137z" fill="url(#0)"/></svg>
